humanity-icon-theme/Humanity/actions/48/document-open.svg

<?xml version="1.0" encoding="UTF-8" standalone="no"?>
<!-- Created with Inkscape (http://www.inkscape.org/) -->
<svg
   xmlns:svg="http://www.w3.org/2000/svg"
   xmlns="http://www.w3.org/2000/svg"
   xmlns:xlink="http://www.w3.org/1999/xlink"
   version="1.0"
   width="48"
   height="48"
   id="svg3272">
  <defs
     id="defs3274">
    <linearGradient
       id="linearGradient4222">
      <stop
         id="stop4224"
         style="stop-color:#ffffff;stop-opacity:1"
         offset="0" />
      <stop
         id="stop4226"
         style="stop-color:#ffffff;stop-opacity:0"
         offset="1" />
    </linearGradient>
    <linearGradient
       x1="40.924362"
       y1="27.531633"
       x2="-11.266858"
       y2="27.531633"
       id="linearGradient2535"
       xlink:href="#linearGradient4222"
       gradientUnits="userSpaceOnUse"
       gradientTransform="matrix(0,-0.6696118,0.6680999,1.710833e-2,6.678864,29.022764)" />
    <linearGradient
       id="linearGradient2264-691-644-798-66-603">
      <stop
         id="stop3706"
         style="stop-color:#ffffff;stop-opacity:1"
         offset="0" />
      <stop
         id="stop3708"
         style="stop-color:#a2a2a2;stop-opacity:1"
         offset="1" />
    </linearGradient>
    <linearGradient
       x1="8.2449274"
       y1="23.890966"
       x2="47.572372"
       y2="23.890966"
       id="linearGradient2538"
       xlink:href="#linearGradient2264-691-644-798-66-603"
       gradientUnits="userSpaceOnUse"
       gradientTransform="matrix(0,0.5567853,0.5581051,3.6e-3,10.666334,-0.110064)" />
    <linearGradient
       id="linearGradient6087-437-184-795-110">
      <stop
         id="stop4655"
         style="stop-color:#ffffff;stop-opacity:1"
         offset="0" />
      <stop
         id="stop4657"
         style="stop-color:#ffffff;stop-opacity:0"
         offset="1" />
    </linearGradient>
    <radialGradient
       cx="7.2646537"
       cy="8.3021259"
       r="20.979567"
       fx="7.2646537"
       fy="8.3021259"
       id="radialGradient2603"
       xlink:href="#linearGradient6087-437-184-795-110"
       gradientUnits="userSpaceOnUse"
       gradientTransform="matrix(0,0.9862682,-1.6271642,0,-25.127044,13.600721)" />
    <linearGradient
       id="linearGradient8265-821-176-38-919">
      <stop
         id="stop4667"
         style="stop-color:#ffffff;stop-opacity:1"
         offset="0" />
      <stop
         id="stop4669"
         style="stop-color:#ffffff;stop-opacity:0"
         offset="1" />
    </linearGradient>
    <linearGradient
       x1="13.079692"
       y1="20.730078"
       x2="16.36186"
       y2="32.979298"
       id="linearGradient2601"
       xlink:href="#linearGradient8265-821-176-38-919"
       gradientUnits="userSpaceOnUse"
       gradientTransform="matrix(1.1446925,0,0,0.8040948,-54.964933,7.9066416)" />
    <linearGradient
       id="linearGradient6129-963-697-142-998">
      <stop
         id="stop4661"
         style="stop-color:#000000;stop-opacity:0.498"
         offset="0" />
      <stop
         id="stop4663"
         style="stop-color:#000000;stop-opacity:0"
         offset="1" />
    </linearGradient>
    <linearGradient
       x1="22.934725"
       y1="49.629246"
       x2="22.809399"
       y2="36.657963"
       id="linearGradient2599"
       xlink:href="#linearGradient6129-963-697-142-998"
       gradientUnits="userSpaceOnUse"
       gradientTransform="matrix(1.1446925,0,0,0.8146303,-54.964933,7.7486085)" />
    <linearGradient
       x1="34.954498"
       y1="45.114197"
       x2="25.474075"
       y2="20.980713"
       id="linearGradient2597"
       xlink:href="#linearGradient3390-178-986-453"
       gradientUnits="userSpaceOnUse"
       gradientTransform="translate(-51.502145,-1.3368493)" />
    <radialGradient
       cx="13.857143"
       cy="19.54422"
       r="24.097353"
       fx="13.857143"
       fy="19.54422"
       id="radialGradient2595"
       xlink:href="#linearGradient7012-661-145-733-759-865-745-661-970-94"
       gradientUnits="userSpaceOnUse"
       gradientTransform="matrix(1.4880117,0,0,0.7912602,-58.264593,9.4843017)" />
    <linearGradient
       id="linearGradient3484">
      <stop
         id="stop3486"
         style="stop-color:#bdbdbd;stop-opacity:1"
         offset="0" />
      <stop
         id="stop3488"
         style="stop-color:#d0d0d0;stop-opacity:1"
         offset="1" />
    </linearGradient>
    <linearGradient
       id="linearGradient6404">
      <stop
         id="stop6406"
         style="stop-color:#f9f9f9;stop-opacity:1"
         offset="0" />
      <stop
         id="stop6408"
         style="stop-color:#c9c9c9;stop-opacity:1"
         offset="1" />
    </linearGradient>
    <linearGradient
       id="linearGradient5060-820">
      <stop
         id="stop2681"
         style="stop-color:#000000;stop-opacity:1"
         offset="0" />
      <stop
         id="stop2683"
         style="stop-color:#000000;stop-opacity:0"
         offset="1" />
    </linearGradient>
    <radialGradient
       cx="605.71429"
       cy="486.64789"
       r="117.14286"
       fx="605.71429"
       fy="486.64789"
       id="radialGradient7600-312"
       xlink:href="#linearGradient5060-820"
       gradientUnits="userSpaceOnUse"
       gradientTransform="matrix(-3.212956e-2,0,0,3.705882e-2,23.363215,25.412461)" />
    <linearGradient
       id="linearGradient5060-179">
      <stop
         id="stop2675"
         style="stop-color:#000000;stop-opacity:1"
         offset="0" />
      <stop
         id="stop2677"
         style="stop-color:#000000;stop-opacity:0"
         offset="1" />
    </linearGradient>
    <radialGradient
       cx="605.71429"
       cy="486.64789"
       r="117.14286"
       fx="605.71429"
       fy="486.64789"
       id="radialGradient7598-526"
       xlink:href="#linearGradient5060-179"
       gradientUnits="userSpaceOnUse"
       gradientTransform="matrix(3.212956e-2,0,0,3.705882e-2,24.636785,25.412461)" />
    <linearGradient
       id="linearGradient5048-585">
      <stop
         id="stop2667"
         style="stop-color:#000000;stop-opacity:0"
         offset="0" />
      <stop
         id="stop2669"
         style="stop-color:#000000;stop-opacity:1"
         offset="0.5" />
      <stop
         id="stop2671"
         style="stop-color:#000000;stop-opacity:0"
         offset="1" />
    </linearGradient>
    <linearGradient
       x1="302.85715"
       y1="366.64789"
       x2="302.85715"
       y2="609.50507"
       id="linearGradient7596-975"
       xlink:href="#linearGradient5048-585"
       gradientUnits="userSpaceOnUse"
       gradientTransform="matrix(8.284024e-2,0,0,3.705882e-2,-5.9408285,25.412461)" />
    <linearGradient
       id="linearGradient3390-178-986-453">
      <stop
         id="stop3624"
         style="stop-color:#bb2b12;stop-opacity:1"
         offset="0" />
      <stop
         id="stop3626"
         style="stop-color:#cd7233;stop-opacity:1"
         offset="1" />
    </linearGradient>
    <linearGradient
       id="linearGradient7012-661-145-733-759-865-745-661-970-94">
      <stop
         id="stop3618"
         style="stop-color:#edb763;stop-opacity:1"
         offset="0" />
      <stop
         id="stop3270"
         style="stop-color:#de7f32;stop-opacity:1"
         offset="0.5" />
      <stop
         id="stop3620"
         style="stop-color:#d24413;stop-opacity:1"
         offset="1" />
    </linearGradient>
    <linearGradient
       x1="63.490036"
       y1="18.343983"
       x2="63.490036"
       y2="21.351515"
       id="linearGradient2561"
       xlink:href="#linearGradient6404"
       gradientUnits="userSpaceOnUse"
       gradientTransform="translate(-50.940898,0)" />
    <radialGradient
       cx="3"
       cy="5.01718"
       r="21"
       fx="3"
       fy="5.01718"
       id="radialGradient2563"
       xlink:href="#linearGradient3484"
       gradientUnits="userSpaceOnUse"
       gradientTransform="matrix(-1.274898e-8,1.7142916,-2.159331,-1.4599595e-8,12.809361,2.8570011)" />
  </defs>
  <path
     d="M 3.5062498,8.4999995 C 2.8159788,8.5076695 2.505808,8.8421456 2.505808,9.4999995 C 2.505808,15.014454 2.532086,19.239576 2.499998,24.25043 C 3.9354707,24.25043 45,24.592532 45,23 L 45.499998,12.506647 C 45.499998,11.848794 44.945794,11.498976 44.255519,11.506647 L 24,11.506647 C 21.952517,11.506647 20.501109,8.4999995 19,8.4999995 L 3.5062498,8.4999995 L 3.5062498,8.4999995 z"
     id="path2756"
     style="fill:url(#linearGradient2561);fill-opacity:1;stroke:url(#radialGradient2563);stroke-width:1.00000012;stroke-linecap:round;stroke-linejoin:round;stroke-miterlimit:4;stroke-dasharray:none;stroke-opacity:1;display:inline" />
  <g
     transform="matrix(0.9583333,0,0,0.6666667,1.0000008,15)"
     id="g2758"
     style="opacity:0.4">
    <rect
       width="40"
       height="9"
       x="4"
       y="39"
       id="rect2760"
       style="fill:url(#linearGradient7596-975);fill-opacity:1;fill-rule:nonzero;stroke:none;stroke-width:1;marker:none;visibility:visible;display:inline;overflow:visible" />
    <path
       d="M 44,39.00031 C 44,39.00031 44,47.999814 44,47.999814 C 45.654593,48.016754 48.000001,45.983481 48,43.499483 C 48,41.015484 46.153598,39.00031 44,39.00031 z"
       id="path2762"
       style="fill:url(#radialGradient7598-526);fill-opacity:1;fill-rule:nonzero;stroke:none;stroke-width:1;marker:none;visibility:visible;display:inline;overflow:visible" />
    <path
       d="M 4,39.00031 C 4,39.00031 4,47.999814 4,47.999814 C 2.3454068,48.016755 0,45.983481 0,43.499483 C 0,41.015484 1.8464008,39.00031 4,39.00031 z"
       id="path2764"
       style="fill:url(#radialGradient7600-312);fill-opacity:1;fill-rule:nonzero;stroke:none;stroke-width:1;marker:none;visibility:visible;display:inline;overflow:visible" />
  </g>
  <rect
     width="13"
     height="2"
     rx="1"
     ry="1"
     x="5"
     y="10"
     id="rect2766"
     style="fill:#eda374;fill-opacity:1;fill-rule:nonzero;stroke:none;stroke-width:1;marker:none;visibility:visible;display:block;overflow:visible;enable-background:accumulate" />
  <path
     d="M 12.999966,13.495697 L 24.027636,0.99566297 L 35.000034,13.495697 L 29.5,13.495697 L 29.5,36.995731 L 18.5,36.922231 L 18.5,13.495696 L 12.999966,13.495696 L 12.999966,13.495697 z"
     id="path5656"
     style="fill:url(#linearGradient2538);fill-opacity:1;fill-rule:nonzero;stroke:#7f7f7f;stroke-width:0.99993217;stroke-linecap:butt;stroke-linejoin:round;marker:none;stroke-miterlimit:4;stroke-dasharray:none;stroke-dashoffset:0;stroke-opacity:1;visibility:visible;display:inline;overflow:visible" />
  <path
     d="M 15.234059,12.495697 L 24,2.51794 L 32.781616,12.495697 L 28.5,12.495697 L 28.5,36.535798 L 19.5,36.279542 L 19.5,12.495697 L 15.234059,12.495697 L 15.234059,12.495697 z"
     id="path4360"
     style="opacity:0.4;fill:none;stroke:url(#linearGradient2535);stroke-width:0.99993217;stroke-linecap:butt;stroke-linejoin:miter;marker:none;stroke-miterlimit:4;stroke-dasharray:none;stroke-dashoffset:0;stroke-opacity:1;visibility:visible;display:inline;overflow:visible" />
  <g
     transform="translate(51.502145,1.2226528)"
     id="g2629">
    <path
       d="M -50.436792,20.163151 C -51.509499,20.264143 -50.936265,21.442372 -51.021792,22.029324 C -50.721331,23.246293 -49.04537,41.463192 -48.842542,42.775881 C -48.500706,43.564334 -47.248108,43.160566 -46.454425,43.260656 C -33.260881,43.260656 -20.067336,43.260656 -6.873792,43.260656 C -5.784413,43.173576 -6.237335,42.111335 -6.084089,41.503411 C -6.022022,40.618864 -4.377523,26.76365 -3.904792,20.756854 C -4.155964,19.977711 -5.392539,20.163151 -6.167792,20.163151 C -20.25717,20.163151 -36.347414,20.163151 -50.436792,20.163151 L -50.436792,20.163151 z"
       id="path7314"
       style="fill:url(#radialGradient2595);fill-opacity:1;stroke:url(#linearGradient2597);stroke-width:1.00000024;stroke-linecap:round;stroke-linejoin:round;stroke-miterlimit:4;stroke-dashoffset:0;stroke-opacity:1" />
    <path
       d="M -50.440792,19.968063 L -4.543792,19.968393 C -3.909632,19.968393 -3.498792,20.331402 -3.498792,20.782707 L -5.743155,42.777712 C -5.743155,43.229017 -6.253687,43.592342 -6.887845,43.592342 L -48.09678,43.592342 C -48.73094,43.592342 -49.241473,43.229017 -49.241473,42.777712 L -51.485792,20.782694 C -51.485792,20.331388 -51.074952,19.968063 -50.440792,19.968063 L -50.440792,19.968063 z"
       id="path2541"
       style="opacity:0.4;fill:url(#linearGradient2599);fill-opacity:1;stroke:none" />
    <path
       d="M -50.440792,19.663151 L -4.543792,19.663151 C -3.909632,19.663151 -3.498792,20.327058 -3.498792,20.772528 L -3.958792,26.775443 L -50.801792,32.603981 L -51.485792,20.772157 C -51.485792,20.326689 -51.074952,19.663151 -50.440792,19.663151 L -50.440792,19.663151 z"
       id="path8263"
       style="opacity:0.2;fill:url(#linearGradient2601);fill-opacity:1;stroke:none" />
    <path
       d="M -4.998792,21.163151 C -18.530042,21.163151 -36.467542,21.163151 -49.998792,21.163151 C -49.778608,22.056316 -48.071582,40.853614 -47.768782,42.325093"
       id="path2544"
       style="opacity:0.4;fill:none;stroke:url(#radialGradient2603);stroke-width:0.99999982;stroke-linecap:round;stroke-linejoin:round;stroke-miterlimit:4;stroke-dasharray:none;stroke-opacity:1" />
  </g>
</svg>

<?xml version="1.0" encoding="UTF-8" standalone="no"?>
<!-- Created with Inkscape (http://www.inkscape.org/) -->
<svg id="svg3272" xmlns="http://www.w3.org/2000/svg" height="48" width="48" version="1.0" xmlns:xlink="http://www.w3.org/1999/xlink">
 <defs id="defs3274">
  <linearGradient id="linearGradient2535" y2="27.532" gradientUnits="userSpaceOnUse" x2="-11.267" gradientTransform="matrix(0 -.66961 .66810 .017108 6.6789 29.023)" y1="27.532" x1="40.924">
   <stop id="stop4224" style="stop-color:#fff" offset="0"/>
   <stop id="stop4226" style="stop-color:#fff;stop-opacity:0" offset="1"/>
  </linearGradient>
  <linearGradient id="linearGradient2538" y2="23.891" gradientUnits="userSpaceOnUse" x2="47.572" gradientTransform="matrix(0 .55679 .55811 .0036 10.666 -.11006)" y1="23.891" x1="8.2449">
   <stop id="stop3706" style="stop-color:#fff" offset="0"/>
   <stop id="stop3708" style="stop-color:#a2a2a2" offset="1"/>
  </linearGradient>
  <radialGradient id="radialGradient2603" gradientUnits="userSpaceOnUse" cy="8.3021" cx="7.2647" gradientTransform="matrix(0 .98627 -1.6272 0 -25.127 13.601)" r="20.98">
   <stop id="stop4655" style="stop-color:#fff" offset="0"/>
   <stop id="stop4657" style="stop-color:#fff;stop-opacity:0" offset="1"/>
  </radialGradient>
  <linearGradient id="linearGradient2601" y2="32.979" gradientUnits="userSpaceOnUse" x2="16.362" gradientTransform="matrix(1.1447 0 0 .80409 -54.965 7.9066)" y1="20.73" x1="13.08">
   <stop id="stop4667" style="stop-color:#fff" offset="0"/>
   <stop id="stop4669" style="stop-color:#fff;stop-opacity:0" offset="1"/>
  </linearGradient>
  <linearGradient id="linearGradient2599" y2="36.658" gradientUnits="userSpaceOnUse" x2="22.809" gradientTransform="matrix(1.1447 0 0 .81463 -54.965 7.7486)" y1="49.629" x1="22.935">
   <stop id="stop4661" style="stop-opacity:.498" offset="0"/>
   <stop id="stop4663" style="stop-opacity:0" offset="1"/>
  </linearGradient>
  <linearGradient id="linearGradient2597" y2="20.981" gradientUnits="userSpaceOnUse" x2="25.474" gradientTransform="translate(-51.502 -1.3368)" y1="45.114" x1="34.954">
   <stop id="stop3624" style="stop-color:#bb2b12" offset="0"/>
   <stop id="stop3626" style="stop-color:#cd7233" offset="1"/>
  </linearGradient>
  <radialGradient id="radialGradient2595" gradientUnits="userSpaceOnUse" cy="19.544" cx="13.857" gradientTransform="matrix(1.488 0 0 .79126 -58.265 9.4843)" r="24.097">
   <stop id="stop3618" style="stop-color:#edb763" offset="0"/>
   <stop id="stop3270" style="stop-color:#de7f32" offset=".5"/>
   <stop id="stop3620" style="stop-color:#d24413" offset="1"/>
  </radialGradient>
  <radialGradient id="radialGradient7600-312" gradientUnits="userSpaceOnUse" cy="486.65" cx="605.71" gradientTransform="matrix(-.032130 0 0 .037059 23.363 25.412)" r="117.14">
   <stop id="stop2681" offset="0"/>
   <stop id="stop2683" style="stop-opacity:0" offset="1"/>
  </radialGradient>
  <radialGradient id="radialGradient7598-526" gradientUnits="userSpaceOnUse" cy="486.65" cx="605.71" gradientTransform="matrix(.032130 0 0 .037059 24.637 25.412)" r="117.14">
   <stop id="stop2675" offset="0"/>
   <stop id="stop2677" style="stop-opacity:0" offset="1"/>
  </radialGradient>
  <linearGradient id="linearGradient7596-975" y2="609.51" gradientUnits="userSpaceOnUse" x2="302.86" gradientTransform="matrix(.082840 0 0 .037059 -5.9408 25.412)" y1="366.65" x1="302.86">
   <stop id="stop2667" style="stop-opacity:0" offset="0"/>
   <stop id="stop2669" offset=".5"/>
   <stop id="stop2671" style="stop-opacity:0" offset="1"/>
  </linearGradient>
  <linearGradient id="linearGradient2561" y2="21.352" gradientUnits="userSpaceOnUse" x2="63.49" gradientTransform="translate(-50.941)" y1="18.344" x1="63.49">
   <stop id="stop6406" style="stop-color:#f9f9f9" offset="0"/>
   <stop id="stop6408" style="stop-color:#c9c9c9" offset="1"/>
  </linearGradient>
  <radialGradient id="radialGradient2563" gradientUnits="userSpaceOnUse" cy="5.0172" cx="3" gradientTransform="matrix(-1.2749e-8 1.7143 -2.1593 -1.46e-8 12.809 2.857)" r="21">
   <stop id="stop3486" style="stop-color:#bdbdbd" offset="0"/>
   <stop id="stop3488" style="stop-color:#d0d0d0" offset="1"/>
  </radialGradient>
 </defs>
 <path id="path2756" style="stroke-linejoin:round;stroke:url(#radialGradient2563);stroke-linecap:round;fill:url(#linearGradient2561)" d="m3.5062 8.5c-0.6902 0.0077-1.0004 0.3421-1.0004 1 0 5.514 0.0263 9.74-0.0058 14.75 1.4355 0 42.5 0.343 42.5-1.25l0.5-10.493c0-0.658-0.554-1.008-1.244-1h-20.256c-2.047 0-3.499-3.007-5-3.007h-15.494 0.0002z"/>
 <g id="g2758" style="opacity:.4" transform="matrix(.95833 0 0 .66667 1 15)">
  <rect id="rect2760" style="fill:url(#linearGradient7596-975)" height="9" width="40" y="39" x="4"/>
  <path id="path2762" style="fill:url(#radialGradient7598-526)" d="m44 39v9c1.655 0.017 4-2.017 4-4.501s-1.846-4.499-4-4.499z"/>
  <path id="path2764" style="fill:url(#radialGradient7600-312)" d="m4 39v9c-1.6546 0.017-4-2.017-4-4.501s1.8464-4.499 4-4.499z"/>
 </g>
 <rect id="rect2766" style="display:block;fill:#eda374" rx="1" ry="1" height="2" width="13" y="10" x="5"/>
 <path id="path5656" style="stroke-linejoin:round;stroke:#7f7f7f;stroke-width:.99993;fill:url(#linearGradient2538)" d="m13 13.496l11.028-12.5 10.972 12.5h-5.5v23.5l-11-0.074v-23.426h-5.5z"/>
 <path id="path4360" style="opacity:.4;stroke:url(#linearGradient2535);stroke-width:.99993;fill:none" d="m15.234 12.496l8.766-9.9781 8.782 9.9781h-4.282v24.04l-9-0.256v-23.784h-4.266z"/>
 <g id="g2629" transform="translate(51.502 1.2227)">
  <path id="path7314" style="stroke-linejoin:round;stroke:url(#linearGradient2597);stroke-linecap:round;fill:url(#radialGradient2595)" d="m-50.437 20.163c-1.072 0.101-0.499 1.279-0.585 1.866 0.301 1.217 1.977 19.434 2.179 20.747 0.342 0.788 1.595 0.385 2.389 0.485h39.58c1.0896-0.087 0.6367-1.15 0.7899-1.758 0.0621-0.884 1.7066-14.739 2.1793-20.746-0.2512-0.779-1.4877-0.594-2.263-0.594h-44.269z"/>
  <path id="path2541" style="opacity:.4;fill:url(#linearGradient2599)" d="m-50.441 19.968h45.897c0.6344 0 1.0452 0.363 1.0452 0.815l-2.2444 21.995c0 0.451-0.5105 0.814-1.1446 0.814h-41.209c-0.634 0-1.144-0.363-1.144-0.814l-2.245-21.995c0-0.452 0.411-0.815 1.045-0.815z"/>
  <path id="path8263" style="opacity:.2;fill:url(#linearGradient2601)" d="m-50.441 19.663h45.897c0.6344 0 1.0452 0.664 1.0452 1.11l-0.46 6.002-46.843 5.829-0.684-11.832c0-0.445 0.411-1.109 1.045-1.109z"/>
  <path id="path2544" style="opacity:.4;stroke-linejoin:round;stroke:url(#radialGradient2603);stroke-linecap:round;fill:none" d="m-4.9988 21.163h-45c0.22 0.893 1.927 19.691 2.23 21.162"/>
 </g>
</svg>
